X: 10465
T: Donegal, The
R: reel
M: 4/4
K: Dmajor
D2 DE FDFA|B~F3 BFAF|EBEF ~G3A|(3Bcd AF GFEF|
D2 DE FDFA|B~F3 ABde|edef dBAG|1 FAEF DFFE:|2 FGEF D2fe||
|:defg afdf|afdf a2gf|~e3f gfed|(3Bcd ef gfef|
defg adfd|afdf abag|f2 ef dBAG|1 FAEF D2fe:|2 FGEF D2FE||

